flaticon/interaction/placeholder-2.svg

<svg xmlns="http://www.w3.org/2000/svg" width="32" height="32" viewBox="0 0 24 24">
    <path d="M 17.398438 12.679688 C 18.898438 9.304688 18.222656 4.9375 15.734375 2.449219 C 14.15625 0.871094 12.054688 0 9.816406 0 C 7.582031 0 5.480469 0.871094 3.902344 2.449219 C 0.976562 5.375 0.613281 10.878906 3.113281 14.210938 L 9.816406 23.894531 L 11.855469 20.953125 C 12.804688 22.761719 14.695312 24 16.878906 24 C 20.003906 24 22.550781 21.457031 22.550781 18.328125 C 22.550781 15.375 20.285156 12.945312 17.398438 12.679688 Z M 9.816406 22.359375 L 3.820312 13.703125 C 1.554688 10.675781 1.878906 5.707031 4.519531 3.066406 C 5.933594 1.652344 7.816406 0.871094 9.816406 0.871094 C 11.820312 0.871094 13.703125 1.652344 15.117188 3.066406 C 17.410156 5.359375 17.980469 9.621094 16.4375 12.675781 C 16.269531 12.691406 16.101562 12.710938 15.9375 12.738281 C 15.914062 12.742188 15.894531 12.746094 15.875 12.75 C 15.738281 12.773438 15.605469 12.804688 15.472656 12.835938 C 15.414062 12.851562 15.359375 12.863281 15.304688 12.878906 C 15.210938 12.910156 15.113281 12.941406 15.019531 12.972656 C 14.929688 13.003906 14.835938 13.035156 14.746094 13.074219 C 14.691406 13.097656 14.632812 13.121094 14.578125 13.144531 C 14.449219 13.203125 14.328125 13.261719 14.207031 13.324219 C 14.183594 13.335938 14.164062 13.347656 14.144531 13.359375 C 12.707031 14.144531 11.660156 15.523438 11.324219 17.175781 C 11.320312 17.179688 11.320312 17.183594 11.320312 17.1875 C 11.285156 17.351562 11.261719 17.515625 11.242188 17.6875 C 11.242188 17.707031 11.234375 17.730469 11.234375 17.753906 C 11.214844 17.941406 11.203125 18.132812 11.203125 18.328125 C 11.203125 18.496094 11.214844 18.660156 11.230469 18.828125 C 11.234375 18.898438 11.242188 18.964844 11.253906 19.035156 C 11.265625 19.121094 11.277344 19.207031 11.292969 19.296875 C 11.308594 19.386719 11.324219 19.480469 11.34375 19.570312 C 11.351562 19.59375 11.359375 19.617188 11.363281 19.644531 C 11.394531 19.761719 11.417969 19.882812 11.453125 19.996094 Z M 16.878906 23.128906 C 14.78125 23.128906 13.003906 21.777344 12.347656 19.902344 C 12.308594 19.789062 12.273438 19.675781 12.246094 19.5625 C 12.238281 19.535156 12.230469 19.507812 12.222656 19.480469 C 12.199219 19.378906 12.175781 19.277344 12.15625 19.175781 C 12.148438 19.117188 12.136719 19.054688 12.128906 18.996094 C 12.117188 18.917969 12.105469 18.84375 12.097656 18.765625 C 12.085938 18.621094 12.078125 18.476562 12.078125 18.328125 C 12.078125 16.511719 13.089844 14.929688 14.582031 14.113281 C 14.597656 14.105469 14.617188 14.09375 14.636719 14.085938 C 14.746094 14.027344 14.855469 13.976562 14.96875 13.925781 C 15.035156 13.898438 15.105469 13.871094 15.175781 13.84375 C 15.238281 13.820312 15.304688 13.796875 15.371094 13.773438 C 15.484375 13.738281 15.597656 13.703125 15.714844 13.675781 C 15.742188 13.667969 15.769531 13.660156 15.796875 13.65625 C 15.941406 13.621094 16.085938 13.59375 16.238281 13.574219 C 16.238281 13.574219 16.242188 13.574219 16.242188 13.574219 C 16.398438 13.554688 16.558594 13.539062 16.722656 13.535156 L 16.917969 13.53125 C 19.546875 13.550781 21.675781 15.695312 21.675781 18.328125 C 21.675781 20.972656 19.523438 23.128906 16.878906 23.128906 Z M 16.878906 23.128906"/>
    <path d="M19.039062 16.167969C18.867188 15.996094 18.589844 15.996094 18.421875 16.167969L16.878906 17.710938 15.335938 16.167969C15.164062 15.996094 14.886719 15.996094 14.71875 16.167969 14.546875 16.339844 14.546875 16.613281 14.71875 16.785156L16.261719 18.328125 14.71875 19.871094C14.546875 20.039062 14.546875 20.316406 14.71875 20.488281 14.800781 20.570312 14.914062 20.613281 15.027344 20.613281 15.136719 20.613281 15.25 20.570312 15.335938 20.488281L16.878906 18.945312 18.421875 20.488281C18.503906 20.570312 18.617188 20.613281 18.730469 20.613281 18.839844 20.613281 18.953125 20.570312 19.039062 20.488281 19.207031 20.316406 19.207031 20.039062 19.039062 19.871094L17.496094 18.328125 19.039062 16.785156C19.207031 16.613281 19.207031 16.339844 19.039062 16.167969zM12.949219 8.289062C12.949219 6.605469 11.578125 5.238281 9.894531 5.238281 8.210938 5.238281 6.839844 6.605469 6.839844 8.289062 6.839844 9.976562 8.210938 11.34375 9.894531 11.34375 11.578125 11.34375 12.949219 9.976562 12.949219 8.289062zM9.894531 10.472656C8.691406 10.472656 7.714844 9.492188 7.714844 8.289062 7.714844 7.085938 8.691406 6.109375 9.894531 6.109375 11.097656 6.109375 12.078125 7.085938 12.078125 8.289062 12.078125 9.492188 11.097656 10.472656 9.894531 10.472656zM9.894531 10.472656"/>
</svg>

<svg xmlns="http://www.w3.org/2000/svg" width="32" height="32" viewBox="0 0 24 24">
    <path d="M17.398 12.68c1.5-3.375.825-7.742-1.664-10.23A8.314 8.314 0 0 0 9.816 0a8.312 8.312 0 0 0-5.914 2.45C.977 5.374.613 10.878 3.113 14.21l6.703 9.685 2.04-2.942A5.671 5.671 0 0 0 16.878 24a5.679 5.679 0 0 0 5.672-5.672 5.68 5.68 0 0 0-5.153-5.648zm-7.582 9.68L3.82 13.702c-2.265-3.027-1.941-7.996.7-10.637A7.447 7.447 0 0 1 9.816.871c2.004 0 3.887.781 5.301 2.195 2.293 2.293 2.863 6.555 1.32 9.61a6.99 6.99 0 0 0-.562.074c-.137.023-.27.055-.402.086-.059.016-.114.027-.168.043-.094.031-.192.062-.285.094-.09.03-.184.062-.274.101l-.168.07a8.19 8.19 0 0 0-.433.215 5.62 5.62 0 0 0-2.82 3.817c-.005.004-.005.008-.005.012a5.132 5.132 0 0 0-.078.5c0 .019-.008.042-.008.066-.02.187-.03.379-.03.574 0 .168.01.332.026.5a7.101 7.101 0 0 0 .063.469c.016.09.031.183.05.273.009.024.016.047.02.075.032.117.055.238.09.351zm7.063.769a4.807 4.807 0 0 1-4.531-3.227 3.737 3.737 0 0 1-.102-.34l-.023-.082c-.024-.101-.047-.203-.067-.304-.008-.059-.02-.121-.027-.18-.012-.078-.024-.152-.031-.23a4.802 4.802 0 0 1 2.484-4.652c.016-.009.035-.02.055-.028.11-.059.218-.11.332-.16.066-.028.136-.055.207-.082.062-.024.129-.047.195-.07a4.96 4.96 0 0 1 .344-.098 4.005 4.005 0 0 1 .523-.102h.004c.156-.02.317-.035.48-.039l.196-.004a4.8 4.8 0 0 1 4.758 4.797c0 2.645-2.153 4.8-4.797 4.8zm0 0"/>
    <path d="M19.04 16.168a.434.434 0 0 0-.618 0l-1.543 1.543-1.543-1.543a.434.434 0 0 0-.617 0 .434.434 0 0 0 0 .617l1.543 1.543-1.543 1.543a.434.434 0 0 0 .308.742c.11 0 .223-.043.309-.125l1.543-1.543 1.543 1.543a.437.437 0 0 0 .308.125c.11 0 .223-.043.31-.125a.44.44 0 0 0 0-.617l-1.544-1.543 1.543-1.543a.441.441 0 0 0 0-.617zm0 0M12.95 8.29a3.056 3.056 0 0 0-6.11 0 3.057 3.057 0 0 0 3.055 3.054 3.057 3.057 0 0 0 3.054-3.055zm-3.055 2.183c-1.204 0-2.18-.98-2.18-2.184a2.18 2.18 0 1 1 2.18 2.184zm0 0"/>
</svg>
